X:193
T:Bratach Bana
R:Reel
M:2/4
L:1/8
K:D % 2 sharps
d|"D"Ad da|"D"f>e f/2e/2d|"D"Ad da|"D"f>e f/2e/2d|"G"2g ab|"D"a>g fg|\
"A7"aa eg/2-e/2|"D"dA "A"BA:||"D"2f f>A|"G"BA d>B|"D"A>B dA|"A7"fe eA|"D"2f f>A|"G"BA d>e|\
"D"ga "A7"ef/2-e/2|"D"dA "A"BA|"D"2f  f>A|"G"BA d>B|"D"A>B dA|"A7"ge eg|"D"A>B dA|\
"G"B/2-A/2G "D"Ad|"D"ga "A"ef/2-e/2|"D"2d d||
%  <A name="D1X194">



